hero/solid/ellipsis-horizontal.svg

<svg width="24" height="24" viewBox="0 0 24 24" fill="none" xmlns="http://www.w3.org/2000/svg">
<path fill-rule="evenodd" clip-rule="evenodd" d="M4.5 12C4.5 11.1716 5.17157 10.5 6 10.5C6.82843 10.5 7.5 11.1716 7.5 12C7.5 12.8284 6.82843 13.5 6 13.5C5.17157 13.5 4.5 12.8284 4.5 12ZM10.5 12C10.5 11.1716 11.1716 10.5 12 10.5C12.8284 10.5 13.5 11.1716 13.5 12C13.5 12.8284 12.8284 13.5 12 13.5C11.1716 13.5 10.5 12.8284 10.5 12ZM16.5 12C16.5 11.1716 17.1716 10.5 18 10.5C18.8284 10.5 19.5 11.1716 19.5 12C19.5 12.8284 18.8284 13.5 18 13.5C17.1716 13.5 16.5 12.8284 16.5 12Z" fill="#0F172A"/>
</svg>

<svg viewBox="0 0 24 24" xmlns="http://www.w3.org/2000/svg"><path fill-rule="evenodd" d="M4.5 12v0c0-.83.67-1.5 1.5-1.5 .82 0 1.5.67 1.5 1.5v0c0 .82-.68 1.5-1.5 1.5 -.83 0-1.5-.68-1.5-1.5Zm6 0v0c0-.83.67-1.5 1.5-1.5 .82 0 1.5.67 1.5 1.5v0c0 .82-.68 1.5-1.5 1.5 -.83 0-1.5-.68-1.5-1.5Zm6 0v0c0-.83.67-1.5 1.5-1.5 .82 0 1.5.67 1.5 1.5v0c0 .82-.68 1.5-1.5 1.5 -.83 0-1.5-.68-1.5-1.5Z"/></svg>
